packages/icons/src/location-top-right-question.svg

<svg width="24" height="24" viewBox="0 0 24 24" fill="none" xmlns="http://www.w3.org/2000/svg">
<path fill-rule="evenodd" clip-rule="evenodd" d="M18.8476 7.76498L18.7876 7.89498L17.9736 9.52098C17.5616 9.42098 17.1926 9.36998 16.8666 9.36998C16.5546 9.36998 16.1856 9.40798 15.7576 9.48598L16.9996 6.99998L4.99958 13L9.99958 14L10.9996 19L12.2366 16.523H14.4726L12.7886 19.894C11.9616 21.548 9.55858 21.278 9.07658 19.553L9.03858 19.393L8.29958 15.7L4.60758 14.961C2.84958 14.61 2.44758 12.352 3.82558 11.378L3.96058 11.291L4.10558 11.211L16.1056 5.21098C17.7376 4.39498 19.4636 5.99698 18.8986 7.63298L18.8486 7.76498H18.8476ZM16.2466 18.704C16.5636 18.704 16.8346 18.814 17.0586 19.033C17.2826 19.253 17.3946 19.521 17.3946 19.838C17.3946 20.155 17.2826 20.428 17.0586 20.657C16.9544 20.7673 16.8284 20.8548 16.6886 20.9138C16.5488 20.9728 16.3983 21.0022 16.2466 21C15.9196 21 15.6446 20.888 15.4206 20.664C15.3111 20.5565 15.2249 20.4278 15.1671 20.2858C15.1093 20.1437 15.0812 19.9913 15.0846 19.838C15.0846 19.521 15.1966 19.252 15.4206 19.033C15.6446 18.813 15.9206 18.704 16.2466 18.704ZM16.4426 11.284C17.3196 11.284 18.0266 11.536 18.5626 12.04C19.0996 12.544 19.3686 13.202 19.3686 14.014C19.3686 14.387 19.3026 14.726 19.1726 15.029C19.0426 15.332 18.9086 15.556 18.7726 15.701L18.6866 15.791L18.4766 15.989L18.1606 16.263L17.9156 16.457L17.8556 16.513L17.8036 16.567L17.5996 16.757L17.5416 16.821L17.4296 16.975C17.3852 17.0323 17.3498 17.096 17.3246 17.164C17.3034 17.2286 17.2848 17.294 17.2686 17.36C17.2501 17.4332 17.2407 17.5084 17.2406 17.584V17.948H15.1826V17.458C15.1826 17.122 15.2496 16.812 15.3856 16.527C15.5206 16.242 15.6536 16.039 15.7846 15.918L16.0806 15.654L16.4006 15.379L16.7966 15.053L16.8486 15.008C16.9041 14.9633 16.9535 14.9115 16.9956 14.854L17.0236 14.812L17.1076 14.7C17.1525 14.6468 17.1859 14.5848 17.2056 14.518L17.2546 14.329C17.2733 14.2582 17.2828 14.1852 17.2826 14.112C17.2826 13.832 17.2006 13.606 17.0376 13.433C16.8736 13.26 16.6576 13.174 16.3866 13.174C16.2583 13.1697 16.1307 13.1932 16.0123 13.2427C15.8939 13.2922 15.7876 13.3667 15.7006 13.461C15.5213 13.6574 15.4259 13.9162 15.4346 14.182V14.42H13.3626V14.182C13.3626 13.332 13.6496 12.637 14.2226 12.096C14.7976 11.555 15.5366 11.284 16.4426 11.284Z" fill="currentColor"/>
</svg>

<svg xmlns="http://www.w3.org/2000/svg" width="24" height="24" fill="none" viewBox="0 0 24 24">
  <path fill="#000" fill-rule="evenodd" d="m18.848 7.765-.06.13-.814 1.626a4.753 4.753 0 0 0-1.107-.151c-.312 0-.681.038-1.11.116L17 7 5 13l5 1 1 5 1.237-2.477h2.236l-1.684 3.371c-.827 1.654-3.23 1.384-3.712-.341l-.038-.16-.74-3.693-3.691-.739c-1.758-.351-2.16-2.609-.782-3.583l.135-.087.145-.08 12-6c1.632-.816 3.358.786 2.793 2.422l-.05.132h-.001Zm-2.601 10.939c.317 0 .588.11.812.329.224.22.336.488.336.805 0 .317-.112.59-.336.819a1.095 1.095 0 0 1-.812.343c-.327 0-.602-.112-.826-.336a1.123 1.123 0 0 1-.336-.826c0-.317.112-.586.336-.805.224-.22.5-.329.826-.329Zm.196-7.42c.877 0 1.584.252 2.12.756.537.504.806 1.162.806 1.974 0 .373-.066.712-.196 1.015-.13.303-.264.527-.4.672l-.086.09-.21.198-.316.274-.245.194-.06.056-.052.054-.204.19-.058.064-.112.154a.713.713 0 0 0-.105.189c-.022.065-.04.13-.056.196a.919.919 0 0 0-.028.224v.364h-2.058v-.49c0-.336.067-.646.203-.931.135-.285.268-.488.399-.609l.296-.264.32-.275.396-.326.052-.045a.819.819 0 0 0 .147-.154l.028-.042.084-.112a.503.503 0 0 0 .098-.182l.049-.189a.841.841 0 0 0 .028-.217c0-.28-.082-.506-.245-.679-.164-.173-.38-.259-.651-.259a.893.893 0 0 0-.686.287 1.02 1.02 0 0 0-.266.721v.238h-2.072v-.238c0-.85.287-1.545.86-2.086.575-.541 1.314-.812 2.22-.812Z" clip-rule="evenodd"/>
</svg>
